svg/part/beard_line.svg

<?xml version="1.0" encoding="UTF-8"?>
<svg width="24px" height="24px" viewBox="0 0 24 24" version="1.1" xmlns="http://www.w3.org/2000/svg" xmlns:xlink="http://www.w3.org/1999/xlink">
    <title>beard_line</title>
    <g id="页面-1" stroke="none" stroke-width="1" fill="none" fill-rule="evenodd">
        <g id="beard_line">
             <path d="M24,0 L24,24 L0,24 L0,0 L24,0 Z M12.5934901,23.257841 L12.5819402,23.2595131 L12.5108777,23.2950439 L12.4918791,23.2987469 L12.4918791,23.2987469 L12.4767152,23.2950439 L12.4056548,23.2595131 C12.3958229,23.2563662 12.3870493,23.2590235 12.3821421,23.2649074 L12.3780323,23.275831 L12.360941,23.7031097 L12.3658947,23.7234994 L12.3769048,23.7357139 L12.4804777,23.8096931 L12.4953491,23.8136134 L12.4953491,23.8136134 L12.5071152,23.8096931 L12.6106902,23.7357139 L12.6232938,23.7196733 L12.6232938,23.7196733 L12.6266527,23.7031097 L12.609561,23.275831 C12.6075724,23.2657013 12.6010112,23.2592993 12.5934901,23.257841 L12.5934901,23.257841 Z M12.8583906,23.1452862 L12.8445485,23.1473072 L12.6598443,23.2396597 L12.6498822,23.2499052 L12.6498822,23.2499052 L12.6471943,23.2611114 L12.6650943,23.6906389 L12.6699349,23.7034178 L12.6699349,23.7034178 L12.678386,23.7104931 L12.8793402,23.8032389 C12.8914285,23.8068999 12.9022333,23.8029875 12.9078286,23.7952264 L12.9118235,23.7811639 L12.8776777,23.1665331 C12.8752882,23.1545897 12.8674102,23.1470016 12.8583906,23.1452862 L12.8583906,23.1452862 Z M12.1430473,23.1473072 C12.1332178,23.1423925 12.1221763,23.1452606 12.1156365,23.1525954 L12.1099173,23.1665331 L12.0757714,23.7811639 C12.0751323,23.7926639 12.0828099,23.8018602 12.0926481,23.8045676 L12.108256,23.8032389 L12.3092106,23.7104931 L12.3186497,23.7024347 L12.3186497,23.7024347 L12.3225043,23.6906389 L12.340401,23.2611114 L12.337245,23.2485176 L12.337245,23.2485176 L12.3277531,23.2396597 L12.1430473,23.1473072 Z" id="MingCute" fill-rule="nonzero"></path>
            <path d="M11.9805,13.5936 C10.6408,15.3725 8.42808,16.2261 6.32027,15.9484 C3.93653,15.6343 1.77435,13.8979 1.02632,10.6997 C0.93847,10.3241 1.07446,9.93153 1.3758,9.69075 C1.67714,9.44997 2.09009,9.40396 2.43703,9.57252 C4.53024,10.5895 6.47127,9.50939 8.09097,8.2181 C8.81879,7.63785 9.62611,7.35472 10.4297,7.4497 C11.0502,7.52302 11.576,7.81125 11.9805,8.2113 C12.3851,7.81125 12.9108,7.52302 13.5313,7.4497 C14.335,7.35472 15.1423,7.63785 15.8701,8.2181 C17.4898,9.50939 19.4308,10.5895 21.524,9.57252 C21.871,9.40396 22.2839,9.44997 22.5853,9.69075 C22.8866,9.93153 23.0226,10.3241 22.9348,10.6997 C22.1867,13.8979 20.0245,15.6343 17.6408,15.9484 C15.533,16.2261 13.3203,15.3725 11.9805,13.5936 Z M10.6332,12.0153 C9.79356,13.4431 8.15216,14.1725 6.58152,13.9655 C5.48925,13.8216 4.38449,13.213 3.64197,11.9593 C6.02264,12.1679 8.05015,10.8084 9.33772,9.78194 C9.75275,9.45107 10.0416,9.41774 10.195,9.43587 C10.8091,9.50845 10.9739,10.3451 10.9805,10.8374 C10.9721,11.204 10.8711,11.6108 10.6332,12.0153 Z M12.9805,10.8374 C12.9889,11.204 13.09,11.6108 13.3279,12.0153 C14.1675,13.4431 15.8089,14.1725 17.3795,13.9655 C18.4718,13.8216 19.5766,13.213 20.3191,11.9593 C17.9384,12.1679 15.9109,10.8084 14.6233,9.78194 C14.2083,9.45107 13.9195,9.41774 13.7661,9.43587 C13.152,9.50845 12.9872,10.3451 12.9805,10.8374 Z" id="形状" fill="#09244B"></path>
        </g>
    </g>
</svg>

<svg xmlns="http://www.w3.org/2000/svg" width="24" height="24"><g fill="none" fill-rule="evenodd"><path d="M24 0v24H0V0h24ZM12.593 23.258l-.011.002-.071.035-.02.004-.014-.004-.071-.035c-.01-.004-.019-.001-.024.005l-.004.01-.017.428.005.02.01.013.104.074.015.004.012-.004.104-.074.012-.016.004-.017-.017-.427c-.002-.01-.009-.017-.017-.018Zm.265-.113-.013.002-.185.093-.01.01-.003.011.018.43.005.012.008.007.201.093c.012.004.023 0 .029-.008l.004-.014-.034-.614c-.003-.012-.01-.02-.02-.022Zm-.715.002a.023.023 0 0 0-.027.006l-.006.014-.034.614c0 .012.007.02.017.024l.015-.002.201-.093.01-.008.004-.011.017-.43-.003-.012-.01-.01-.184-.092Z"/><path fill="#09244B" d="M11.98 13.594c-1.34 1.779-3.552 2.632-5.66 2.354-2.383-.314-4.546-2.05-5.294-5.248a1 1 0 0 1 1.411-1.127c2.093 1.016 4.034-.064 5.654-1.355.728-.58 1.535-.863 2.339-.768.62.073 1.146.361 1.55.761.405-.4.93-.688 1.551-.761.804-.095 1.611.188 2.34.768 1.619 1.291 3.56 2.371 5.653 1.355a1 1 0 0 1 1.41 1.127c-.747 3.198-2.91 4.934-5.293 5.248-2.108.278-4.32-.575-5.66-2.354Zm-1.347-1.579c-.84 1.428-2.48 2.157-4.051 1.95-1.093-.143-2.198-.752-2.94-2.006 2.38.209 4.408-1.15 5.696-2.177.415-.33.704-.364.857-.346.614.072.779.91.785 1.401a2.43 2.43 0 0 1-.347 1.178Zm2.348-1.178c.008.367.109.774.347 1.178.84 1.428 2.48 2.157 4.052 1.95 1.092-.143 2.197-.752 2.94-2.006-2.382.209-4.41-1.15-5.697-2.177-.415-.33-.703-.364-.857-.346-.614.072-.779.91-.786 1.401Z"/></g></svg>
